resources/dark/play.svg

<svg fill="none" height="16" viewBox="0 0 16 16" width="16" xmlns="http://www.w3.org/2000/svg" xmlns:xlink="http://www.w3.org/1999/xlink"><linearGradient id="a" gradientUnits="userSpaceOnUse" x1="8" x2="8" y1="2" y2="14"><stop offset="0" stop-color="#6d78f5"/><stop offset="1" stop-color="#926df7"/></linearGradient><path clip-rule="evenodd" d="m14 8c0 3.866-3.134 7-7 7s-7-3.134-7-7c0-3.86599 3.134-7 7-7s7 3.13401 7 7zm-8.22265 3.4818 4.59865-3.06577c.2968-.19792.2968-.63414 0-.83205l-4.59865-3.06575c-.33228-.22151-.77735.01668-.77735.41603v6.13144c0 .3994.44507.6376.77735.4161z" fill="url(#a)" fill-rule="evenodd" opacity=".85"/></svg>

<svg width="16" height="16" viewBox="0 0 16 16" fill="none" xmlns="http://www.w3.org/2000/svg">
<g opacity="0.85">
<path fill-rule="evenodd" clip-rule="evenodd" d="M14 8C14 11.866 10.866 15 7 15C3.134 15 0 11.866 0 8C0 4.13401 3.134 1 7 1C10.866 1 14 4.13401 14 8ZM5.77735 11.4818L10.376 8.41603C10.6728 8.21811 10.6728 7.78189 10.376 7.58398L5.77735 4.51823C5.44507 4.29672 5 4.53491 5 4.93426V11.0657C5 11.4651 5.44507 11.7033 5.77735 11.4818Z" fill="url(#paint0_linear)"/>
</g>
<defs>
<linearGradient id="paint0_linear" x1="8" y1="2" x2="8" y2="14" gradientUnits="userSpaceOnUse">
<stop stop-color="#6D78F5"/>
<stop offset="1" stop-color="#926DF7"/>
</linearGradient>
</defs>
</svg>
